X:8
T:Messe pour l'Avent
M:C
K:Em
P:Kyrie (sans presser)
E2E2D2G2|FEF2HE4|E2G2A3G|A2B2HG4|
w:Toi qui viens pour|nous*sau-ver|Sei-gneur prends pi-|ti de nous|
G2GAB2G2|(AG)F2HE4|E2E2D2G2|FEF2HE4||
w:No-tre Sau-veur et|no-*tre Dieu|Sei-gneur prends pi-|ti*de nous|
P:Sanctus (bien allant)
E2E2D2G2|(FE)F2HE4|E2G2A3G|A2B2HG4||
w:1.~Dieu trs saint, nous|t'a-*do-rons!|Dieu trs saint, nous|t'ac-cla-mons!|
w:2.~B-ni soit Ce-|lui*qui vient!|B-ni soit ton|Fils J-sus!|
G2A2B2G2|AGF2HE4|E2E2D2G2|FEF2HE4:|
w:Ho-san-na au|plus haut des cieux!|Ho-san-na au|plus haut des cieux!|
P:Anamnese (sans presser)
E2E2D2G2|(FE)F2HE4|E2G2A3G|A2B2HG4|
w:Gloire  toi qui|-*tait mort!|Gloire  toi qui|es vi-vant!|
G2GAB2G2|(AG)F2HE4|E3ED2G2|(FE)F2HE4||
w:No-tre Sau-veur et|no-*tre Dieu!|Viens, oh! viens, Sei-|gneur*J-sus!|
P:Agneau de Dieu (sans presser)
E2E2D2G2|(FE)F2HE4|E2G2A2AG|A2B2HG4|
w:Fils de Dieu A-|gneau*de Dieu|Qui en-l-ve no-|tre p-ch|
G2GAB2G2|(AG)F2HE4|E3ED2G2|(FE)F2HE4||
w:No-tre Sau-veur et|no-*tre Dieu|Viens, et don-ne|nous*la paix.|
